X:110
T:Kingston Volunteers Slow March,2voices. JGi.110
O:Tealby,Lincolnshire
M:C|
L:1/8
Q:1/4=110
S:Joshua Gibbons MS,1823,Tealby,Lincs.
R:march
Z:VMP/R.Greig, 2009
K:F
[V:1]|:f2c>c c>b a>g|f2c>c c>b a>g|a>gf>e d>cB>A|G2G>GG2z2|
[V:2]|:f2A>A A2f>e|f2A>AA2f>e|f>ed>c B>AG>F|E2E>EE2z2|
[V:1]g2c>c cb a>f|g2c>c c>b a>g|a>gf>ga2g2|f2f>ff3a:|
[V:2]c2A>AA2f2|c2A>AA2f>e|f>ef>ef2c2|A2A>AA2z2:|
[V:1]|:(ba)(gf) (fe)(dc)|c2c/B/A/B/A2d>B|c>Af>c b>ag>f|a4g3f/a/|
[V:2]|:(BA)(GF) (FE)(DC)|A2A/G/F/G/F2A2|A>AA>A B>AB>A|
[V:1]bagf fedc|c2c/B/A/B/ A2d>B|c>ba>g a2g2|f2f>ff2:|
[V:2]f4e4|BAGF FEDC|A2A/G/F/G/F2z2|A>gf>ec2B2|A2A>AA2:|

